X:1
T:Title
%%score 1 { 2 | 3 }
L:1/8
Q:1/4=160
M:2/2
K:C
V:1 treble nm="Grand Piano, Soprano"
V:2 treble nm="Choir Pad, Bass"
V:3 bass 
V:1
 [Ec]4 [CE]2 [CA]2 | [CG]6 [Ec]2 | [Fd]4 [DB]4 | [Ec]4 [Ac]4 | [^FA]2 [Fd]2 G2 [GA]2 | %5
w: By~Lowell,~Mason,~1841 * *|||||
 [GB]4 [^FA]4 | G8 | [Dd]4 [DB]2 G2 | [Gc]6 G2 | [FA]4 [G_B]4 | [EG]4 [Ec]4 | %11
w: ||||||
 [FA]2 [Af]2 [Ge]2 [Fd]2 | [Ec]4 [DB]4 | [Ec]8- | [Ec]4 z4 |] %15
w: ||||
V:2
 G,4 C2 C2 | C6 G,2 | G,4 G,4 | G,4 E4 | D2[K:treble] D2 E2 E2 | D4 D2 C2 | B,8 | B,4 D2 B,2 | %8
 C6[K:treble] C2 | C4 D4 | C4 G,4 | F,2 F,2 G,2 A,2 | G,4 G,4 | G,8- | G,4 z4 |] %15
V:3
 C,4 C,2 F,2 | E,6 C,2 | z4 G,,4 | C,4 A,,4 | D,2 B,,2 E,2 C,2 | D,4 D,4 | G,,8 | G,4 G,2 F,2 | %8
 E,6 E,2 | F,4 _B,,4 | C,4 C,4 | z2 D,2 E,2 F,2 | z4 G,,4 | C,8- | C,4 z4 |] %15

